vivaldi-source/chromium/chrome/browser/resources/chromeos/accessibility/chromevox/images/chromevox.svg

<svg xmlns="http://www.w3.org/2000/svg" width="20" height="20" viewBox="0 0 20 20" fill="none"><path fill-rule="evenodd" clip-rule="evenodd" d="M18 10C18 14.4183 14.4183 18 10 18C5.58172 18 2 14.4183 2 10C2 5.58172 5.58172 2 10 2C14.4183 2 18 5.58172 18 10ZM12.6649 6.45129C12.4061 6.70997 12.1539 6.97349 11.9034 7.24024L11.9419 7.28316C12.6377 8.05766 13.4089 8.9162 13.3555 10.021C13.4231 11.1478 12.6847 12.0742 11.9215 12.826C12.1374 13.1121 12.355 13.3966 12.5742 13.6812C13.8318 12.8421 14.6115 11.3677 14.5109 9.869C14.4912 8.51421 13.7132 7.28875 12.6649 6.45129ZM16.4369 11.8007C16.0199 13.2587 15.1013 14.5109 13.8751 15.3668C13.6422 15.0565 13.4173 14.7431 13.1973 14.4249C13.265 14.3572 13.3332 14.2896 13.4016 14.222C13.9255 13.7031 14.456 13.1778 14.806 12.5285C15.6746 10.9636 15.6235 8.96048 14.7071 7.42623C14.398 6.91226 13.9725 6.48312 13.5492 6.05621C13.4466 5.9527 13.3441 5.84928 13.2434 5.74486C13.4758 5.4393 13.7099 5.13536 13.9472 4.83142C16.2095 6.30004 17.1394 9.27583 16.4369 11.8007ZM8.76834 3.6819C8.65865 3.67805 8.54334 3.67287 8.42323 3.66663C5.50187 4.36467 3.33331 6.94817 3.33331 10.0285C3.33331 12.686 4.94749 14.9738 7.26665 16C7.81355 15.8425 8.32371 15.7038 8.74691 15.6132C8.95295 14.5704 9.07492 13.5131 9.12601 12.4509C8.64468 12.1743 8.14468 11.9313 7.64471 11.6883C7.41704 11.5776 7.18938 11.467 6.96349 11.3532C7.14882 11.3177 7.33455 11.2834 7.52037 11.2492C8.17242 11.129 8.82547 11.0087 9.46555 10.8326C9.48066 10.6217 9.49434 10.4109 9.50802 10.2001C9.52717 9.90487 9.54632 9.60968 9.5694 9.31449C10.082 8.98145 10.5963 8.65326 11.1171 8.33638C10.8995 7.72365 10.6193 7.13517 10.3045 6.56609C10.1023 6.19924 9.91543 5.82425 9.72855 5.44922C9.42953 4.84915 9.13046 4.24899 8.76834 3.6819Z" fill="white"/></svg>

<svg xmlns="http://www.w3.org/2000/svg" width="20" height="20" viewBox="0 0 20 20" fill="none"><path fill-rule="evenodd" clip-rule="evenodd" d="M18 10a8 8 0 1 1-16 0 8 8 0 0 1 16 0Zm-5.335-3.549a33.45 33.45 0 0 0-.762.79l.039.042c.696.775 1.467 1.633 1.413 2.738.068 1.127-.67 2.053-1.434 2.805.216.286.434.57.653.855 1.258-.839 2.037-2.313 1.937-3.812-.02-1.355-.798-2.58-1.846-3.418Zm3.772 5.35a6.562 6.562 0 0 1-2.562 3.566c-.233-.31-.458-.624-.678-.942l.205-.203c.524-.519 1.054-1.044 1.404-1.694.869-1.564.818-3.568-.099-5.102-.309-.514-.735-.943-1.158-1.37a31.85 31.85 0 0 1-.306-.311c.233-.306.467-.61.704-.914 2.262 1.469 3.192 4.445 2.49 6.97ZM8.768 3.68c-.11-.003-.225-.008-.345-.014-2.921.698-5.09 3.281-5.09 6.361 0 2.658 1.614 4.946 3.934 5.972a23.226 23.226 0 0 1 1.48-.387c.206-1.043.328-2.1.379-3.162-.481-.277-.981-.52-1.481-.763-.228-.11-.456-.221-.682-.335l.557-.104c.652-.12 1.305-.24 1.946-.416l.042-.633c.02-.295.038-.59.061-.886a61.936 61.936 0 0 1 1.548-.978 11.89 11.89 0 0 0-.813-1.77 29.416 29.416 0 0 1-.575-1.117c-.3-.6-.599-1.2-.96-1.767Z" fill="#fff"/></svg>
